public/images/icons/book.svg

<svg fill="none" height="28" viewBox="0 0 36 28" width="36" xmlns="http://www.w3.org/2000/svg"><path d="m32.125 0c-1.5.0625-9 .5625-13.6875 3.0625-.25.125-.6875.125-.9375 0-4.6875-2.5-12.1875-3-13.6875-3.0625-2.125 0-3.8125 1.6875-3.8125 3.75v18.5c0 2 1.5625 3.5625 3.5625 3.6875 2.1875.125 7.625.5 11.375 1.875.375.125.6875.1875 1 .1875h4c.375 0 .6875-.0625 1.0625-.1875 3.75-1.375 9.1875-1.75 11.375-1.875 2-.125 3.5625-1.6875 3.5625-3.6875v-18.5c.0625-2.0625-1.6875-3.75-3.8125-3.75zm-15.125 25.0625c0 .5625-.5 1-1 1-.125 0-.1875-.0625-.3125-.0625-3.9375-1.5-9.3125-1.9375-12-2.0625-.9375-.0625-1.6875-.75-1.6875-1.6875v-18.5c0-.9375.8125-1.6875 1.8125-1.6875 1.1875 0 7.625.4375 12 2.375.6875.3125 1.125 1 1.125 1.75l.0625 6.25zm17-2.8125c0 .9375-.8125 1.625-1.75 1.6875-2.6875.125-8.0625.5625-12 2.0625-.125 0-.1875.0625-.3125.0625-.5 0-1-.4375-1-1v-12.625l.0625-6.25c0-.75.4375-1.4375 1.125-1.75 4.375-1.9375 10.8125-2.375 12-2.375 1 0 1.8125.75 1.8125 1.6875v18.5z" fill="#14bef0"/></svg>

<svg width="36" height="28" viewBox="0 0 36 28" fill="none" xmlns="http://www.w3.org/2000/svg">
<path d="M32.125 0C30.625 0.0625 23.125 0.5625 18.4375 3.0625C18.1875 3.1875 17.75 3.1875 17.5 3.0625C12.8125 0.5625 5.3125 0.0625 3.8125 0C1.6875 0 0 1.6875 0 3.75V22.25C0 24.25 1.5625 25.8125 3.5625 25.9375C5.75 26.0625 11.1875 26.4375 14.9375 27.8125C15.3125 27.9375 15.625 28 15.9375 28H19.9375C20.3125 28 20.625 27.9375 21 27.8125C24.75 26.4375 30.1875 26.0625 32.375 25.9375C34.375 25.8125 35.9375 24.25 35.9375 22.25V3.75C36 1.6875 34.25 0 32.125 0ZM17 25.0625C17 25.625 16.5 26.0625 16 26.0625C15.875 26.0625 15.8125 26 15.6875 26C11.75 24.5 6.375 24.0625 3.6875 23.9375C2.75 23.875 2 23.1875 2 22.25V3.75C2 2.8125 2.8125 2.0625 3.8125 2.0625C5 2.0625 11.4375 2.5 15.8125 4.4375C16.5 4.75 16.9375 5.4375 16.9375 6.1875L17 12.4375V25.0625ZM34 22.25C34 23.1875 33.1875 23.875 32.25 23.9375C29.5625 24.0625 24.1875 24.5 20.25 26C20.125 26 20.0625 26.0625 19.9375 26.0625C19.4375 26.0625 18.9375 25.625 18.9375 25.0625V12.4375L19 6.1875C19 5.4375 19.4375 4.75 20.125 4.4375C24.5 2.5 30.9375 2.0625 32.125 2.0625C33.125 2.0625 33.9375 2.8125 33.9375 3.75V22.25H34Z" fill="#14BEF0"/>
</svg>
